src/lib/packages/icons/src/assets/filled/sticky-note-circle-smile.svg

<svg width="24" height="24" viewBox="0 0 24 24" fill="none" xmlns="http://www.w3.org/2000/svg">
<path d="M14.25 19C14.25 16.38 16.38 14.25 19 14.25H21.74C21.91 13.69 22 13.11 22 12.51V12C22 6.37996 17.37 1.84996 11.72 1.99996C6.49997 2.13996 2.14996 6.48995 2.00996 11.71C1.84996 17.36 6.38996 21.9899 12.01 21.9899H12.52C13.11 21.9899 13.7 21.9 14.26 21.73V18.9899L14.25 19ZM15.01 8.74996C15.7 8.74996 16.26 9.30996 16.26 9.99996C16.26 10.69 15.7 11.25 15.01 11.25C14.32 11.25 13.76 10.69 13.76 9.99996C13.76 9.30996 14.31 8.74996 15.01 8.74996ZM7.75996 9.99996C7.75996 9.30996 8.30996 8.74996 9.00996 8.74996C9.69996 8.74996 10.26 9.30996 10.26 9.99996C10.26 10.69 9.69996 11.25 9.00996 11.25C8.31996 11.25 7.75996 10.69 7.75996 9.99996ZM11.99 15.75C11.19 15.75 10.41 15.57 9.67996 15.22C9.30996 15.04 9.14997 14.59 9.32997 14.22C9.50997 13.85 9.95997 13.69 10.33 13.87C11.4 14.38 12.65 14.37 13.67 13.87C14.04 13.69 14.49 13.84 14.67 14.21C14.85 14.58 14.7 15.03 14.33 15.22C13.6 15.58 12.82 15.76 11.99 15.76V15.75ZM21.05 15.75C20.82 16.11 20.55 16.45 20.24 16.76L16.75 20.25C16.44 20.56 16.1 20.82 15.74 21.06V19.01C15.74 17.22 17.2 15.76 18.99 15.76H21.04L21.05 15.75Z" fill="currentColor"/>
</svg>

<svg xmlns="http://www.w3.org/2000/svg" width="24" height="24" fill="none"><path fill="currentColor" d="M14.25 19c0-2.62 2.13-4.75 4.75-4.75h2.74c.17-.56.26-1.14.26-1.74V12c0-5.62-4.63-10.15-10.28-10-5.22.14-9.57 4.49-9.71 9.71-.16 5.65 4.38 10.28 10 10.28h.51c.59 0 1.18-.09 1.74-.26v-2.74l-.01.01Zm.76-10.25a1.25 1.25 0 1 1 0 2.5 1.25 1.25 0 0 1 0-2.5ZM7.76 10a1.25 1.25 0 1 1 2.5.001A1.25 1.25 0 0 1 7.76 10Zm4.23 5.75c-.8 0-1.58-.18-2.31-.53a.752.752 0 0 1-.35-1c.18-.37.63-.53 1-.35 1.07.51 2.32.5 3.34 0 .37-.18.82-.03 1 .34.18.37.03.82-.34 1.01-.73.36-1.51.54-2.34.54v-.01Zm9.06 0c-.23.36-.5.7-.81 1.01l-3.49 3.49c-.31.31-.65.57-1.01.81v-2.05c0-1.79 1.46-3.25 3.25-3.25h2.05l.01-.01Z"/></svg>
